X: 25867
T: Matheu Watson's
R: reel
M: 4/4
K: Eminor
BB|:BEED E2GG|GAED E2GA|B3B BAAG|GFFE F2BB|
BEED E2GG|GAED A3A|BBBG AAAB|AGED E2BB:|
Beed e2gg|gaed e2ga|b3b baag|gffe f2bb|
beed e2gg|gaed a3a|bgab aaag|effd e2BB:|

